Obsidian-SemiLight/actions/24s/fork.svg

<svg viewBox="0 0 24 24" xmlns="http://www.w3.org/2000/svg"><path d="m4 2.9980469v.0019531 16h1 8 1v-.009766l.007812.009766 3.992188-3.992188v-.009765-1.40625-4.591797h-1v5h-4v1 3h-8v-14h8v-1-.0019531h-8zm13 .0019531-4 3 2.699219.9003906-.699219 2.0996094 4-3-2.699219-.9003906z" fill="#4d4d4d"/></svg>

<svg xmlns="http://www.w3.org/2000/svg" viewBox="0 0 24 24">
  <defs id="defs3051">
    <style type="text/css" id="current-color-scheme">
      .ColorScheme-Text {
        color:#4d4d4d;
      }
      </style>
  </defs>
 <path style="fill:currentColor;fill-opacity:1;stroke:none" 
     d="M 4 2.9980469 L 4 3 L 4 19 L 5 19 L 13 19 L 14 19 L 14 18.990234 L 14.007812 19 L 18 15.007812 L 18 14.998047 L 18 13.591797 L 18 9 L 17 9 L 17 14 L 13 14 L 13 15 L 13 18 L 5 18 L 5 4 L 13 4 L 13 3 L 13 2.9980469 L 5 2.9980469 L 4 2.9980469 z M 17 3 L 13 6 L 15.699219 6.9003906 L 15 9 L 19 6 L 16.300781 5.0996094 L 17 3 z "
     class="ColorScheme-Text"
     />
</svg>
